svgs/thin/film.svg

<svg xmlns="http://www.w3.org/2000/svg" viewBox="0 0 512 512"><!--! Font Awesome Pro 6.6.0 by @fontawesome - https://fontawesome.com License - https://fontawesome.com/license (Commercial License) Copyright 2024 Fonticons, Inc. --><path d="M112 48l0 56-96 0 0-8c0-26.5 21.5-48 48-48l48 0zm0 152l-96 0 0-80 96 0 0 80zM0 208l0 8 0 80 0 8 0 8 0 80 0 8 0 8 0 8c0 35.3 28.7 64 64 64l48 0 8 0 8 0 256 0 8 0 8 0 48 0c35.3 0 64-28.7 64-64l0-8 0-8 0-8 0-80 0-8 0-8 0-80 0-8 0-8 0-80 0-8 0-8 0-8c0-35.3-28.7-64-64-64l-48 0-8 0-8 0L128 32l-8 0-8 0L64 32C28.7 32 0 60.7 0 96l0 8 0 8 0 8 0 80 0 8zm16 8l96 0 0 40 0 40-96 0 0-80zm112 48l256 0 0 40 0 96 0 64-256 0 0-64 0-96 0-40zm256-16l-256 0 0-40 0-96 0-64 256 0 0 64 0 96 0 40zm16 8l0-40 96 0 0 80-96 0 0-40zM16 392l0-80 96 0 0 80-96 0zm0 24l0-8 96 0 0 56-48 0c-26.5 0-48-21.5-48-48zM400 104l0-56 48 0c26.5 0 48 21.5 48 48l0 8-96 0zm0 96l0-80 96 0 0 80-96 0zm0 192l0-80 96 0 0 80-96 0zm0 72l0-56 96 0 0 8c0 26.5-21.5 48-48 48l-48 0z"/></svg>

<svg xmlns="http://www.w3.org/2000/svg" viewBox="0 0 512 512"><!--! Font Awesome Pro 6.4.0 by @fontawesome - https://fontawesome.com License - https://fontawesome.com/license (Commercial License) Copyright 2023 Fonticons, Inc. --><path d="M112 48v56H16V96c0-26.5 21.5-48 48-48h48zm0 152H16V120h96v80zM0 208v8 80 8 8 80 8 8 8c0 35.3 28.7 64 64 64h48 8 8H384h8 8 48c35.3 0 64-28.7 64-64v-8-8-8V312v-8-8V216v-8-8V120v-8-8V96c0-35.3-28.7-64-64-64H400h-8-8H128h-8-8H64C28.7 32 0 60.7 0 96v8 8 8 80 8zm16 8h96v40 40H16V216zm112 48H384v40 96 64H128V400 304 264zm256-16H128V208 112 48H384v64 96 40zm16 8V216h96v80H400V256zM16 392V312h96v80H16zm0 24v-8h96v56H64c-26.5 0-48-21.5-48-48zM400 104V48h48c26.5 0 48 21.5 48 48v8H400zm0 96V120h96v80H400zm0 192V312h96v80H400zm0 72V408h96v8c0 26.5-21.5 48-48 48H400z"/></svg>
